picto/car-hire-right-de.svg

<svg class="color-immutable" width="24" height="24" viewBox="0 0 24 24" fill="none" xmlns="http://www.w3.org/2000/svg"><g clip-path="url(#a)"><path d="M0 22.5v-21C0 .675.675 0 1.5 0h21c.825 0 1.5.675 1.5 1.5v21c0 .825-.675 1.5-1.5 1.5h-21C.675 24 0 23.325 0 22.5Z" fill="#2D327D"/><path d="m20.655 16.714-4.387-.364-2.614-2.614a1.125 1.125 0 0 0-.795-.33H6.376c-.298 0-.584.119-.795.33l-2.251 2.25a1.13 1.13 0 0 0-.33.795v2.644c0 .207.169.375.376.375h.374v-.431a2.251 2.251 0 0 1 4.5 0v.431h7.462v-.431a2.25 2.25 0 1 1 4.499 0v.431h.412a.375.375 0 0 0 .376-.375v-2.338a.373.373 0 0 0-.344-.373Zm-11.282-.682a.374.374 0 0 1-.375.374H4.514a.224.224 0 0 1-.225-.225.23.23 0 0 1 .065-.159l1.794-1.794a.379.379 0 0 1 .266-.11h2.584c.207 0 .375.169.375.376v1.538Zm5.348.374h-4.259a.373.373 0 0 1-.374-.373l-.003-1.537v-.001c0-.207.168-.376.375-.376h2.361c.1 0 .195.04.266.11l1.794 1.794a.225.225 0 0 1-.16.383Z" fill="#fff"/><path fill-rule="evenodd" clip-rule="evenodd" d="M6.005 20.222a.938.938 0 1 1 .002-1.876.938.938 0 0 1-.002 1.876Zm0-2.644a1.707 1.707 0 1 0 0 3.414 1.707 1.707 0 0 0 0-3.414ZM17.966 20.222a.938.938 0 1 1 0-1.876.938.938 0 0 1 0 1.876Zm-.001-2.644a1.707 1.707 0 1 0 0 3.414 1.707 1.707 0 0 0 0-3.414Z" fill="#fff"/><path d="m5.013 3-.747 2.249h-.558L2.971 3h.514l.506 1.684L4.504 3h.509ZM6.576 4.726a.752.752 0 0 1-.128.266c-.148.202-.36.303-.637.303-.25 0-.451-.079-.601-.237a.775.775 0 0 1-.169-.278 1.058 1.058 0 0 1-.063-.363c0-.244.07-.449.211-.615a.76.76 0 0 1 .609-.278.754.754 0 0 1 .735.516c.046.13.069.294.069.492h-1.17c.004.082.017.15.038.205.061.147.175.22.345.22a.343.343 0 0 0 .203-.055.396.396 0 0 0 .129-.176h.429Zm-.429-.494a.544.544 0 0 0-.055-.201.334.334 0 0 0-.296-.171.328.328 0 0 0-.246.1.445.445 0 0 0-.115.272h.712ZM7.916 3.541v.432a1.038 1.038 0 0 0-.174-.02.391.391 0 0 0-.366.209c-.044.079-.066.209-.066.391v.695h-.446v-1.68h.425v.306c.121-.228.297-.341.528-.341.027.001.061.003.099.008ZM8.552 3.574v.223a.6.6 0 0 1 .519-.274c.217 0 .37.092.457.277a.622.622 0 0 1 .535-.277c.174 0 .31.052.406.156.096.104.145.251.145.441v1.129h-.446V4.25a.519.519 0 0 0-.035-.226c-.042-.079-.118-.118-.228-.118-.133 0-.226.056-.278.169a.697.697 0 0 0-.035.269v.904h-.446V4.232a.493.493 0 0 0-.035-.215c-.038-.074-.109-.111-.212-.111a.316.316 0 0 0-.172.048.297.297 0 0 0-.115.13.67.67 0 0 0-.038.26v.904h-.446V3.574h.424ZM11.426 3v.401h-.446V3h.446Zm0 .572v1.677h-.446V3.572h.446ZM13.297 4.726a.752.752 0 0 1-.128.266c-.148.202-.36.303-.637.303-.25 0-.451-.079-.601-.237a.775.775 0 0 1-.169-.278 1.058 1.058 0 0 1-.063-.363c0-.244.07-.449.211-.615a.76.76 0 0 1 .609-.278.754.754 0 0 1 .735.516c.046.131.069.295.069.493h-1.17c.004.082.017.15.038.205.06.147.175.22.345.22a.343.343 0 0 0 .203-.055.39.39 0 0 0 .129-.176h.429v-.001Zm-.429-.494a.544.544 0 0 0-.055-.201.334.334 0 0 0-.295-.171.328.328 0 0 0-.246.1.442.442 0 0 0-.115.272h.711ZM14.465 3.566v.315h-.334v.789c0 .094.009.154.026.18.026.037.083.055.172.055.035 0 .08-.003.135-.008v.357c-.1.011-.193.017-.277.017a.762.762 0 0 1-.291-.043.332.332 0 0 1-.194-.252 1.954 1.954 0 0 1-.017-.325v-.77h-.272v-.315h.272v-.394h.445v.394h.335ZM16.215 3.569v1.68h-.425v-.245a.61.61 0 0 1-.538.291c-.201 0-.353-.067-.455-.201a.498.498 0 0 1-.084-.185 1.228 1.228 0 0 1-.025-.277V3.569h.446v.924c0 .096.003.165.008.205.006.04.017.074.035.102.047.075.128.112.241.112a.32.32 0 0 0 .306-.186c.031-.061.046-.17.046-.328v-.829h.445ZM16.981 3.574v.235a.633.633 0 0 1 .546-.287c.137 0 .254.035.349.105a.432.432 0 0 1 .159.21c.03.085.045.204.045.358V5.25h-.445v-.963a.722.722 0 0 0-.028-.237.211.211 0 0 0-.089-.105.321.321 0 0 0-.165-.042.356.356 0 0 0-.185.049.306.306 0 0 0-.123.134.738.738 0 0 0-.045.297v.864h-.446V3.574h.427ZM19.997 3.569v1.48c0 .131-.008.236-.025.315a.662.662 0 0 1-.085.215c-.129.205-.361.308-.695.308-.466 0-.72-.176-.764-.528h.449c.031.14.139.211.325.211.142 0 .24-.04.297-.12.044-.064.066-.166.066-.308l.002-.208a.56.56 0 0 1-.498.265.627.627 0 0 1-.503-.221c-.127-.15-.191-.352-.191-.606s.064-.458.191-.612a.644.644 0 0 1 .521-.238c.112 0 .205.021.28.063a.596.596 0 0 1 .206.211v-.227h.424Zm-.81.317a.315.315 0 0 0-.285.157.6.6 0 0 0-.078.32c0 .164.038.289.114.374a.323.323 0 0 0 .257.114.328.328 0 0 0 .3-.168.632.632 0 0 0 .077-.326c0-.158-.039-.28-.118-.366a.348.348 0 0 0-.267-.105Z" fill="#fff"/></g><defs><clipPath id="a"><path fill="#fff" d="M0 0h24v24H0z"/></clipPath></defs></svg>

<svg class="color-immutable" width="24" height="24" viewBox="0 0 24 24" fill="none" xmlns="http://www.w3.org/2000/svg"><path d="M0 22.5V1.5C0 0.675 0.675 0 1.5 0H22.5C23.325 0 24 0.675 24 1.5V22.5C24 23.325 23.325 24 22.5 24H1.5C0.675 24 0 23.325 0 22.5Z" fill="#2D327D"/><path d="M20.655 16.714L16.268 16.35L13.654 13.736C13.443 13.525 13.157 13.406 12.859 13.406H6.376C6.078 13.406 5.792 13.525 5.581 13.736L3.33 15.986C3.12 16.197 3 16.484 3 16.781V19.425C3 19.632 3.169 19.8 3.376 19.8H3.75V19.369C3.75 18.127 4.759 17.118 6 17.118C7.242 17.118 8.25 18.126 8.25 19.369V19.8H15.712V19.369C15.712 18.127 16.72 17.118 17.962 17.118C19.204 17.118 20.211 18.126 20.211 19.369V19.8H20.623C20.831 19.8 20.999 19.632 20.999 19.425V17.087C21 16.892 20.85 16.73 20.655 16.714ZM9.373 16.032C9.373 16.239 9.205 16.406 8.998 16.406H4.514C4.389 16.406 4.289 16.306 4.289 16.181C4.289 16.122 4.313 16.064 4.354 16.022L6.148 14.228C6.219 14.158 6.314 14.118 6.414 14.118H8.998C9.205 14.118 9.373 14.287 9.373 14.494V16.032ZM14.721 16.406H10.462C10.255 16.406 10.088 16.239 10.088 16.033L10.085 14.496C10.085 14.495 10.085 14.495 10.085 14.495C10.085 14.288 10.253 14.119 10.46 14.119H12.821C12.921 14.119 13.016 14.159 13.087 14.229L14.881 16.023C14.922 16.065 14.947 16.122 14.947 16.182C14.947 16.306 14.846 16.406 14.721 16.406Z" fill="white"/><path fill-rule="evenodd" clip-rule="evenodd" d="M6.005 20.222C5.488 20.222 5.068 19.802 5.068 19.284C5.068 18.766 5.488 18.346 6.005 18.346C6.523 18.346 6.942 18.766 6.942 19.284C6.942 19.802 6.522 20.222 6.005 20.222ZM6.005 17.578C5.063 17.578 4.298 18.342 4.298 19.284C4.298 20.226 5.063 20.991 6.005 20.991C6.946 20.991 7.712 20.226 7.712 19.284C7.711 18.342 6.946 17.578 6.005 17.578Z" fill="white"/><path fill-rule="evenodd" clip-rule="evenodd" d="M17.966 20.222C17.448 20.222 17.028 19.802 17.028 19.284C17.028 18.766 17.448 18.346 17.966 18.346C18.484 18.346 18.902 18.766 18.902 19.284C18.902 19.802 18.483 20.222 17.966 20.222ZM17.965 17.578C17.023 17.578 16.258 18.342 16.258 19.284C16.258 20.226 17.023 20.991 17.965 20.991C18.907 20.991 19.672 20.226 19.672 19.284C19.671 18.342 18.907 17.578 17.965 17.578Z" fill="white"/><path d="M5.01301 3L4.26601 5.249H3.70801L2.97101 3H3.48501L3.99101 4.684L4.50401 3H5.01301Z" fill="white"/><path d="M6.576 4.726C6.552 4.82 6.51 4.909 6.448 4.992C6.3 5.194 6.088 5.295 5.811 5.295C5.561 5.295 5.36 5.216 5.21 5.058C5.136 4.981 5.08 4.888 5.041 4.78C4.999 4.664 4.978 4.543 4.978 4.417C4.978 4.173 5.048 3.968 5.189 3.802C5.346 3.616 5.549 3.524 5.798 3.524C5.999 3.524 6.17 3.586 6.312 3.71C6.414 3.799 6.487 3.909 6.533 4.04C6.579 4.17 6.602 4.334 6.602 4.532H5.432C5.436 4.614 5.449 4.682 5.47 4.737C5.531 4.884 5.645 4.957 5.815 4.957C5.898 4.957 5.966 4.939 6.018 4.902C6.07 4.865 6.113 4.807 6.147 4.726H6.576ZM6.147 4.232C6.139 4.151 6.12 4.084 6.092 4.031C6.063 3.978 6.022 3.937 5.969 3.906C5.916 3.875 5.859 3.86 5.796 3.86C5.697 3.86 5.615 3.893 5.55 3.96C5.486 4.026 5.447 4.117 5.435 4.232H6.147Z" fill="white"/><path d="M7.91601 3.541V3.973C7.84401 3.96 7.78601 3.953 7.74201 3.953C7.57601 3.953 7.45401 4.023 7.37601 4.162C7.33201 4.241 7.31001 4.371 7.31001 4.553V5.248H6.86401V3.568H7.28901V3.874C7.41001 3.646 7.58601 3.533 7.81701 3.533C7.84401 3.534 7.87801 3.536 7.91601 3.541Z" fill="white"/><path d="M8.55202 3.57399V3.79699C8.60902 3.71999 8.66502 3.66299 8.72002 3.62599C8.82002 3.55699 8.93602 3.52299 9.07102 3.52299C9.28802 3.52299 9.44102 3.61499 9.52802 3.79999C9.65902 3.61499 9.83802 3.52299 10.063 3.52299C10.237 3.52299 10.373 3.57499 10.469 3.67899C10.565 3.78299 10.614 3.92999 10.614 4.11999V5.249H10.168V4.24999C10.168 4.142 10.156 4.067 10.133 4.024C10.091 3.945 10.015 3.90599 9.90502 3.90599C9.77202 3.90599 9.67902 3.96199 9.62702 4.07499C9.60302 4.12499 9.59202 4.21499 9.59202 4.34399V5.248H9.14602V4.23199C9.14602 4.13299 9.13402 4.061 9.11102 4.017C9.07302 3.943 9.00202 3.90599 8.89902 3.90599C8.83502 3.90599 8.77802 3.92199 8.72702 3.95399C8.67602 3.98499 8.63802 4.029 8.61202 4.084C8.58702 4.14 8.57402 4.22599 8.57402 4.34399V5.248H8.12802V3.57399H8.55202Z" fill="white"/><path d="M11.426 3V3.401H10.98V3H11.426ZM11.426 3.572V5.249H10.98V3.572H11.426Z" fill="white"/><path d="M13.297 4.726C13.273 4.82 13.231 4.909 13.169 4.992C13.021 5.194 12.809 5.295 12.532 5.295C12.282 5.295 12.081 5.216 11.931 5.058C11.857 4.981 11.801 4.888 11.762 4.78C11.72 4.664 11.699 4.543 11.699 4.417C11.699 4.173 11.769 3.968 11.91 3.802C12.067 3.616 12.27 3.524 12.519 3.524C12.72 3.524 12.891 3.586 13.033 3.71C13.135 3.799 13.208 3.909 13.254 4.04C13.3 4.171 13.323 4.335 13.323 4.533H12.153C12.157 4.615 12.17 4.683 12.191 4.738C12.251 4.885 12.366 4.958 12.536 4.958C12.619 4.958 12.687 4.94 12.739 4.903C12.791 4.867 12.834 4.808 12.868 4.727H13.297V4.726ZM12.868 4.232C12.86 4.151 12.841 4.084 12.813 4.031C12.784 3.979 12.744 3.937 12.691 3.906C12.638 3.875 12.581 3.86 12.518 3.86C12.419 3.86 12.337 3.893 12.272 3.96C12.207 4.027 12.169 4.117 12.157 4.232H12.868Z" fill="white"/><path d="M14.465 3.566V3.881H14.131V4.67C14.131 4.764 14.14 4.824 14.157 4.85C14.183 4.887 14.24 4.905 14.329 4.905C14.364 4.905 14.409 4.902 14.464 4.897V5.254C14.364 5.265 14.271 5.271 14.187 5.271C14.06 5.271 13.963 5.257 13.896 5.228C13.792 5.182 13.728 5.098 13.702 4.976C13.691 4.924 13.685 4.816 13.685 4.651V3.881H13.413V3.566H13.685V3.172H14.13V3.566H14.465Z" fill="white"/><path d="M16.215 3.569V5.249H15.79V5.004C15.662 5.198 15.482 5.295 15.252 5.295C15.051 5.295 14.899 5.228 14.797 5.094C14.758 5.042 14.73 4.98 14.713 4.909C14.696 4.838 14.688 4.746 14.688 4.632V3.569H15.134V4.493C15.134 4.589 15.137 4.658 15.142 4.698C15.148 4.738 15.159 4.772 15.177 4.8C15.224 4.875 15.305 4.912 15.418 4.912C15.558 4.912 15.661 4.85 15.724 4.726C15.755 4.665 15.77 4.556 15.77 4.398V3.569H16.215Z" fill="white"/><path d="M16.981 3.574V3.809C17.033 3.737 17.082 3.684 17.127 3.651C17.238 3.565 17.371 3.522 17.527 3.522C17.664 3.522 17.781 3.557 17.876 3.627C17.952 3.682 18.005 3.752 18.035 3.837C18.065 3.922 18.08 4.041 18.08 4.195V5.25H17.635V4.287C17.635 4.179 17.626 4.1 17.607 4.05C17.59 4.006 17.56 3.971 17.518 3.945C17.47 3.917 17.415 3.903 17.353 3.903C17.285 3.903 17.224 3.919 17.168 3.952C17.113 3.985 17.072 4.029 17.045 4.086C17.015 4.15 17 4.249 17 4.383V5.247H16.554V3.574H16.981Z" fill="white"/><path d="M19.997 3.569V5.049C19.997 5.18 19.989 5.285 19.972 5.364C19.956 5.442 19.927 5.514 19.887 5.579C19.758 5.784 19.526 5.887 19.192 5.887C18.726 5.887 18.472 5.711 18.428 5.359H18.877C18.908 5.499 19.016 5.57 19.202 5.57C19.344 5.57 19.442 5.53 19.499 5.45C19.543 5.386 19.565 5.284 19.565 5.142L19.567 4.934C19.452 5.11 19.286 5.199 19.069 5.199C18.859 5.199 18.691 5.125 18.566 4.978C18.439 4.828 18.375 4.626 18.375 4.372C18.375 4.118 18.439 3.914 18.566 3.76C18.698 3.601 18.872 3.522 19.087 3.522C19.199 3.522 19.292 3.543 19.367 3.585C19.442 3.627 19.511 3.697 19.573 3.796V3.569H19.997ZM19.187 3.886C19.062 3.886 18.967 3.938 18.902 4.043C18.85 4.127 18.824 4.234 18.824 4.363C18.824 4.527 18.862 4.652 18.938 4.737C19.004 4.813 19.089 4.851 19.195 4.851C19.328 4.851 19.428 4.795 19.495 4.683C19.546 4.597 19.572 4.488 19.572 4.357C19.572 4.199 19.533 4.077 19.454 3.991C19.388 3.921 19.3 3.886 19.187 3.886Z" fill="white"/></svg>
